X:779
T:Bride's Favorite/O'Brian's
O:england
M:6/8
R:Jig
K:G
D | ~G3 BAB | GBd gdB | AFd cAF | GBd gdB|\
~G3 BAB | GBd gdB | AFd cAF | AGF G2::\
d | ~g3 f2a | gdB GBd | ~g3 fed | (4efgf e2f|\
~g3 fga | gdB GBd | cAd cAF | AGF G2::\
A | GBd ~g3 | edc BdA | GBd ~g3 | eaf g2 a|\
bgb afa | geg fed | ed^c def | gaf g2:|


